!!!COM: Beethoven
!!!OTL: 6 Variationen uber "Nel cor piu non mi sento" von G. Paisiello
!!!Variation: Variation 6 c
**function	**kern	**kern	**kern
*	*	*clefF4	*clefG2
*	*	*k[f#]	*k[f#]
*M6/8	*M6/8	*M6/8	*M6/8
*G:	*G:	*G:	*G:
8T	8I	16D	16dd
.	.	16GJJ	16dJJ
=129	=129	=129	=129
2.P	2.V7b/ii	16GG#LL	16ddLL
.	.	16E	16e
.	.	16BB	16ff
.	.	16E	16e
.	.	16D	16ee
.	.	16EJJ	16eJJ
.	.	16GG#LL	16ddLL
.	.	16E	16e
.	.	16BB	16cc
.	.	16E	16e
.	.	16D	16b
.	.	16EJJ	16eJJ
=130	=130	=130	=130
2.P	2.ii	16AALL	16ddLL
.	.	16A	16e
.	.	16C	16cc
.	.	16A	16e
.	.	16E	16cc
.	.	16AJJ	16eJJ
.	.	16AALL	16ccLL
.	.	16A	16e
.	.	16C	16b
.	.	16A	16e
.	.	16E	16cc
.	.	16AJJ	16eJJ
=131	=131	=131	=131
2.D	2.V7	16DLL	16ccLL
.	.	16c	16f#
.	.	16F#	16ee
.	.	16c	16f#
.	.	16A	16dd
.	.	16cJJ	16f#JJ
.	.	16DLL	16ccLL
.	.	16c	16f#
.	.	16F#	16b
.	.	16c	16f#
.	.	16A	16a
.	.	16cJJ	16f#JJ
=132	=132	=132	=132
2.D	2.I	16GGLL	16ccLL
.	.	16G	16g
.	.	16BB	16b
.	.	16G	16g
.	.	16D	16b
.	.	16GJJ	16gJJ
.	.	16GGLL	16bLL
.	.	16G	16g
.	.	16BB	16a#
.	.	16G	16g
.	.	16D	16b
.	.	16GJJ	16gJJ
=133	=133	=133	=133
2.D	2.V7c/V	16ELL	16cc#LL
.	.	16c#	16g
.	.	16G	16gg
.	.	16c#	16g
.	.	16A	16ff#
.	.	16c#JJ	16gJJ
.	.	16ELL	16eeLL
.	.	16c#	16g
.	.	16G	16dd
.	.	16c#	16g
.	.	16A	16cc#
.	.	16c#JJ	16gJJ
=134	=134	=134	=134
2.D	2.V	4.D; 4.F#; 4.A; 4.d;	4.f#; 4.dd;
.	.	4r	8r
.	.	.	8r
.	.	8r	16ddLL
.	.	.	16dJJ
=135	=135	=135	=135
4.D	4.V7b	16FF#LL	16aLL 16cc
.	.	16D	16d
.	.	16C#	16c#
.	.	16D	16d
.	.	16FF#	16a 16cc
.	.	16DJJ	16dJJ
4.D	4.I	16GGLL	16gLL 16b
.	.	16D	16d
.	.	16C#	16c#
.	.	16D	16d
.	.	16GG	16g 16b
.	.	16DJJ	16dJJ
=136	=136	=136	=136
2.D	2.V	16DDLL	16f#LL 16a
.	.	16D	16d
.	.	16C#	16c#
.	.	16D	16d
.	.	16C#	16c#
.	.	16DJJ	16dJJ
.	.	16CLL	16f#LL
.	.	16D	16d
.	.	16BB	16g
.	.	16D	16d
.	.	16AA	16f# 16a
.	.	16DJJ	16dJJ
*-	*-	*-	*-
